X: 788
T: A Night at the Fair.
C:F. O'Neill.
B:O'Neill's Music of Ireland
N:O'Neill's - 788
Z:Transcribed by Stephen Foy (shf@access.digex.net)
Z:abc 1.6
R:Jig
M:6/8
K:G
A|B2 A GED|EGG G2 A|BGG dGG|BAA ABc|\
B2 A GED|EGG G2 A|BGB Adc|BGG G2:|
||d|egg eaa|egg ged|edB AGA|BAA A2 d|\
egg eaa|egg ged|ced cBA|BGG G2:|


